!!!OTL: Die Bernauerin.
!!!OTL-incipit: Es reiten drei Herren zu Muenchen hinaus,
!!!ARE: Europa, Mitteleuropa, Deutschland (BRD), Bayern, Regensburg
!!!YOR: 3, S. 210
!!    1817 gedruckt in Breslau
!!!SCT: Q0065B
!!!TXL: @@DE
!!!YEM: Copyright 1995, estate of Helmut Schaffrath.
**kern	**text
*ICvox	*
*M4/4	*
*met(c)	*
*k[]	*
*C:	*
!LO:TX:a:t=Langsam.	!
{8g	Es
=1	=1
8gL	rei-
8ccJ	.
8b	-ten
8a	drei
8g	Her-
8aL	.
8bJ	-ren
8cc	ʒu
=2	=2
4dd	München
8cc	.
8b	hin-
4cc	-aus,
8r}	.
{8g	Sie
=3	=3
8gL	rei-
8ccJ	.
8b	-ten
8a	wol
8g	vor
8aL	.
8bJ	der
8cc	Ber-
=4	=4
4dd	-naue-
8cc	-rin
8b	ihr
4cc	Haus
8r}	.
{8g	'Ber-
=5	=5
8g	-nau-
8cc	-e-
4cc	-rin,
4cc	biſt
8cc	du
8cc	da
=6	=6
8gL	rin-
8ddJ	.
4dd	-nen,
4r	.
8b	ja
8b	da-
=7	=7
8bL	-rin-
8ccJ	.
4cc	-nen?'
4r	.
8r}	.
==	==
!!!AGN: Ballade, historisch (1435) , Standesunterschied, Liebe, Mord
!! Anhaengsel an der letzten Zeile.
!!!ONB: ESAC (Essen Associative Code) Database: BALLADE
!!!AMT: simple quadruple
!!!AIN: vox
!!!EED: Helmut Schaffrath
!!!EEV: 1.0
!!!source: Deutsche Volkslieder mit ihren Melodien. Herausgegeben vom Deutschen Volksliedarchiv. Dritter Band Balladen. Berlin 1954.
!!!page: 210
!!!ENC: Anna Maria Matuszewska
!!!EEV: 2025/02/21
*-	*-
